images_elementary_svg/cmd/sc_diagramdata.svg

<svg viewBox="0 0 16 16" xmlns="http://www.w3.org/2000/svg" xmlns:xlink="http://www.w3.org/1999/xlink"><linearGradient id="a" gradientTransform="matrix(.94103 0 0 1.027 .46 -.56)" gradientUnits="userSpaceOnUse" x1="7" x2="7" y1="-4" y2="17"><stop offset="0" stop-color="#cdf87e"/><stop offset=".262" stop-color="#a2e34f"/><stop offset=".661" stop-color="#68b723"/><stop offset="1" stop-color="#1d7e0d"/></linearGradient><linearGradient id="b" gradientTransform="matrix(.59436 0 0 .5999 -19.265 -.033)" gradientUnits="userSpaceOnUse" x1="25.132" x2="25.132" y1="15.5" y2="48.396"><stop offset="0" stop-color="#fafafa"/><stop offset="1" stop-color="#e2e1de"/></linearGradient><linearGradient id="c" gradientTransform="matrix(.98704 0 0 .88413 .093 .65)" gradientUnits="userSpaceOnUse" x1="7" x2="7" y1="2" y2="9"><stop offset="0" stop-color="#fff"/><stop offset=".5" stop-color="#fff" stop-opacity=".235"/><stop offset=".951" stop-color="#fff" stop-opacity=".157"/><stop offset="1" stop-color="#fff" stop-opacity=".392"/></linearGradient><rect fill="url(#b)" height="10" rx=".424" ry=".491" width="14" x="1" y="3"/><path d="m.5 2a.5.5 0 0 0 -.5.5v11a.5.5 0 0 0 .5.5h15a.5.5 0 0 0 .5-.5v-11a.5.5 0 0 0 -.5-.5zm.498.998h14.004v10.004h-14.004zm4.002.002v2h-4v1h4v3h-4v1h4v3h1v-3h4v3h1v-3h4v-1h-4v-3h4v-1h-4v-2h-1v2h-4v-2zm1 3h4v3h-4z" fill="#030303" opacity=".32"/><path d="m.5 2a.5.5 0 0 0 -.5.5v3.5h.998v-3.002h14.004v3.002h.998v-3.5a.5.5 0 0 0 -.5-.5zm4.5 1v2h-4v1h14v-1h-4v-2h-1v2h-4v-2z" fill="#126400" opacity=".4"/><path d="m.5 2.52h15.02v3.082h-15.02z" fill="url(#a)"/><path d="m.5 2.52v3.082l.51-.008-.01-2.594h14v2.602h.518v-3.08z" fill="url(#c)"/><path d="m5 2.494h1v3.074h-1zm5 0h1v3.103h-1z" fill="#126400" opacity=".4"/></svg>

<svg xmlns="http://www.w3.org/2000/svg" xmlns:xlink="http://www.w3.org/1999/xlink" viewBox="0 0 16 16"><defs><linearGradient gradientTransform="matrix(1.38317 0 0 1.41442 -36.243 -3.873)" id="a" gradientUnits="userSpaceOnUse" x1="8.295" x2="8.295" y1="-4.284" y2="16.85"><stop offset="0" stop-color="#cdf87e"/><stop offset=".262" stop-color="#a2e34f"/><stop offset=".661" stop-color="#68b723"/><stop offset="1" stop-color="#1d7e0d"/></linearGradient><linearGradient xlink:href="#a" id="d" x1="7" y1="-4" x2="7" y2="17" gradientUnits="userSpaceOnUse" gradientTransform="matrix(.94103 0 0 1.027 .46 -.56)"/><linearGradient id="c" gradientTransform="matrix(.59436 0 0 .5999 -19.265 -.033)" gradientUnits="userSpaceOnUse" x1="25.132" x2="25.132" y1="15.5" y2="48.396"><stop offset="0" stop-color="#fafafa"/><stop offset="1" stop-color="#e2e1de"/></linearGradient><linearGradient id="b"><stop offset="0" stop-color="#fff"/><stop offset=".5" stop-color="#fff" stop-opacity=".235"/><stop offset=".951" stop-color="#fff" stop-opacity=".157"/><stop offset="1" stop-color="#fff" stop-opacity=".392"/></linearGradient><linearGradient xlink:href="#b" id="e" x1="7" y1="2" x2="7" y2="9" gradientUnits="userSpaceOnUse" gradientTransform="matrix(.98704 0 0 .88413 .093 .65)"/></defs><rect height="10" rx=".424" ry=".491" width="14" x="1" y="3" fill="url(#c)"/><path fill="#030303" d="M.5 2a.5.5 0 0 0-.5.5v11a.5.5 0 0 0 .5.5h15a.5.5 0 0 0 .5-.5v-11a.5.5 0 0 0-.5-.5zm.498.998h14.004v10.004H.998zM5 3v2H1v1h4v3H1v1h4v3h1v-3h4v3h1v-3h4V9h-4V6h4V5h-4V3h-1v2H6V3zm1 3h4v3H6z" opacity=".32"/><path d="M.5 2a.5.5 0 0 0-.5.5V6h.998V2.998h14.004V6H16V2.5a.5.5 0 0 0-.5-.5H.5zM5 3v2H1v1h14V5h-4V3h-1v2H6V3H5z" fill="#126400" opacity=".4"/><path d="M.5 2.52H15.52v3.082H.5z" fill="url(#d)"/><path d="M.5 2.52v3.082l.51-.008L1 3h14v2.602h.518v-3.08z" fill="url(#e)"/><path opacity=".4" fill="#126400" d="M5 2.494h1v3.074H5zM10 2.494h1v3.103h-1z"/></svg>
